**kern	**kern	**dynam
*part1	*part1	*part1
*staff2	*staff1	*
*I"Piano	*	*
*clefF4	*clefG2	*
*k[f#c#]	*k[f#c#]	*
=1	=1	=1
2FF#] 2E] 2F#]	2c#] 2e] 2f#] 2cc#]	.
2FF# 2C# 2F#	2A#X 2c# 2f# 2a#X	.
=	=	=
2.BB 2.D#X 2.F#	2.B 2.d#X 2.f# 2.b	.
*	*clefF4	*
4BBB 4FF# 4BB	4F# 4B 4d#X	.
=	=	=
*	*^	*
*	*	*^	*
1BBB 1FF# 1C#	(4e	(2F#	1A#X	.
.	4c#	.	.	.
.	2f#)	2E)	.	.
*	*v	*v	*v	*
=	=	=
2.BBB 2.FF# 2.BB	2.D#X 2.B	.
4BBB 4FF# 4BB	4F# 4B 4d#X	.
=	=	=
*	*^	*
[1BBB [1FF# [1C#	(4e	1F# [1A#X	.
.	4c#	.	.
.	[2f#^)	.	fp
=	=	=	=
*^	*	*	*
2.C#]	1BBB] 1FF#]	2.f#]	1E 1A#]	p p
4FF#	.	(8c#L	.	.
.	.	8d#XJ)	.	.
*v	*v	*	*	*
*	*v	*v	*
=	=	=
1BBB 1FF# 1BB	1D#X 1B	.
=	=	=
!	!	!LO:DY:a
2BBB 2FF# 2BB	2D#X 2F# 2B	f
2BBB 2FF# 2BB	2D# 2F# 2B	.
=	=	=
1BBB; 1FF# 1BB	1D#X; 1F# 1B	.
==	==	==
*-	*-	*-
!!!system-decoration: {(s1,s2)}
